X:17
T:Toccata Theme in D minor (BWV 565)
C:Bach, J.S.
M:4/4
L:1/16
Q:1/4=88
K:Dmin
|:A4 A3B A2G2 F2E2|D4 D3E D2C2 B,2A,2|
G,4 G,3A, G,2F,2 E,2D,2|A,8 z8|
d4 d3e d2c2 B2A2|G4 G3A G2F2 E2D2|
E4 EFGA B2c2 d2A2|D8 z8:|

